COLOR/action 16/16/zoom-previous.svg

<svg height="16" width="16" xmlns="http://www.w3.org/2000/svg"><g stroke-width="1.368679"><path d="m3.7142854 14h-1.7142854v-5.9532195-6.0467806h1.7142854v5.1428572l10.2857146-5.1428572v12.0000001l-10.2857146-5.1428576z" fill="#1a7fd4"/><path d="m2.0000001 2.0000008v.4285714h1.7142857v-.4285714zm11.9999989 0-10.2857132 5.1428568v.4285714l10.2857132-5.1428568z" fill="#fff" opacity=".3"/><path d="m2.0000001 14v-.428571h1.7142857v.428571zm11.9999989 0-10.2857132-5.1428568v-.4285714l10.2857132 5.1428572z" opacity=".2"/></g></svg>

<?xml version="1.0" encoding="UTF-8" standalone="no"?>
<svg
   xmlns:dc="http://purl.org/dc/elements/1.1/"
   xmlns:cc="http://creativecommons.org/ns#"
   xmlns:rdf="http://www.w3.org/1999/02/22-rdf-syntax-ns#"
   xmlns:svg="http://www.w3.org/2000/svg"
   xmlns="http://www.w3.org/2000/svg"
   xmlns:sodipodi="http://sodipodi.sourceforge.net/DTD/sodipodi-0.dtd"
   xmlns:inkscape="http://www.inkscape.org/namespaces/inkscape"
   height="16"
   width="16"
   version="1.1"
   id="svg4"
   sodipodi:docname="zoom-previous.svg"
   inkscape:version="0.92.4 (5da689c313, 2019-01-14)">
  <metadata
     id="metadata10">
    <rdf:RDF>
      <cc:Work
         rdf:about="">
        <dc:format>image/svg+xml</dc:format>
        <dc:type
           rdf:resource="http://purl.org/dc/dcmitype/StillImage" />
      </cc:Work>
    </rdf:RDF>
  </metadata>
  <defs
     id="defs8" />
  <sodipodi:namedview
     pagecolor="#ffffff"
     bordercolor="#808080"
     borderopacity="1"
     objecttolerance="10"
     gridtolerance="10"
     guidetolerance="10"
     inkscape:pageopacity="0"
     inkscape:pageshadow="2"
     inkscape:window-width="1920"
     inkscape:window-height="1016"
     id="namedview6"
     showgrid="false"
     inkscape:zoom="14.75"
     inkscape:cx="-4.9830508"
     inkscape:cy="8"
     inkscape:window-x="0"
     inkscape:window-y="27"
     inkscape:window-maximized="1"
     inkscape:current-layer="svg4" />
  <path
     d="M 3.7142854,14 H 2 V 8.0467805 1.9999999 H 3.7142854 V 7.1428571 L 14,1.9999999 V 14 L 3.7142854,8.8571424 Z"
     id="path2"
     inkscape:connector-curvature="0"
     style="fill:#1a7fd4;stroke-width:1.36867881" />
  <path
     style="opacity:0.3;fill:#ffffff;fill-opacity:1;stroke-width:1.36867881"
     d="M 2.0000001,2.0000008 V 2.4285722 H 3.7142858 V 2.0000008 Z m 11.9999989,0 L 3.7142858,7.1428576 V 7.571429 L 13.999999,2.4285722 Z"
     id="path817"
     inkscape:connector-curvature="0" />
  <path
     id="path822"
     d="M 2.0000001,14 V 13.571429 H 3.7142858 V 14 Z M 13.999999,14 3.7142858,8.8571432 V 8.4285718 L 13.999999,13.571429 Z"
     style="opacity:0.2;fill:#000000;fill-opacity:1;stroke-width:1.36867881"
     inkscape:connector-curvature="0" />
</svg>
